SVG_Azure_All/Storage Account Lifecycle Management.svg

<?xml version="1.0" encoding="UTF-8" standalone="no"?>
<!-- Generated by Microsoft Visio, SVG Export Storage Account Lifecycle Management.svg Page-1 -->

<svg
   xmlns:dc="http://purl.org/dc/elements/1.1/"
   xmlns:cc="http://creativecommons.org/ns#"
   xmlns:rdf="http://www.w3.org/1999/02/22-rdf-syntax-ns#"
   xmlns:svg="http://www.w3.org/2000/svg"
   xmlns="http://www.w3.org/2000/svg"
   xmlns:sodipodi="http://sodipodi.sourceforge.net/DTD/sodipodi-0.dtd"
   xmlns:inkscape="http://www.inkscape.org/namespaces/inkscape"
   width="0.78735709in"
   height="0.78735709in"
   viewBox="0 0 56.689778 56.689998"
   xml:space="preserve"
   class="st5"
   version="1.1"
   id="svg39"
   sodipodi:docname="Storage Account Lifecycle Management.svg"
   style="font-size:12px;overflow:visible;color-interpolation-filters:sRGB;fill:none;fill-rule:evenodd;stroke-linecap:square;stroke-miterlimit:3"
   inkscape:version="0.92.5 (2060ec1f9f, 2020-04-08)"><metadata
   id="metadata45"><rdf:RDF><cc:Work
       rdf:about=""><dc:format>image/svg+xml</dc:format><dc:type
         rdf:resource="http://purl.org/dc/dcmitype/StillImage" /></cc:Work></rdf:RDF></metadata><defs
   id="defs43" /><sodipodi:namedview
   pagecolor="#ffffff"
   bordercolor="#666666"
   borderopacity="1"
   objecttolerance="10"
   gridtolerance="10"
   guidetolerance="10"
   inkscape:pageopacity="0"
   inkscape:pageshadow="2"
   inkscape:window-width="640"
   inkscape:window-height="480"
   id="namedview41"
   showgrid="false"
   inkscape:zoom="1.7193066"
   inkscape:cx="37.795072"
   inkscape:cy="23.279613"
   inkscape:window-x="0"
   inkscape:window-y="0"
   inkscape:window-maximized="0"
   inkscape:current-layer="svg39" />
	<style
   type="text/css"
   id="style2">
	<![CDATA[
		.st1 {fill:#ffffff;stroke:none;stroke-linecap:butt;stroke-width:12.24}
		.st2 {fill:#59b4d9;fill-opacity:0.2;stroke:none;stroke-linecap:butt;stroke-width:12.24}
		.st3 {fill:#3999c6;stroke:none;stroke-linecap:butt;stroke-width:12.24}
		.st4 {fill:#804998;stroke:none;stroke-linecap:butt;stroke-width:12.24}
		.st5 {fill:none;fill-rule:evenodd;font-size:12px;overflow:visible;stroke-linecap:square;stroke-miterlimit:3}
	]]>
	</style>

	<g
   id="g37"
   transform="translate(-12.24016,-12.2443)">
		<title
   id="title4">Page-1</title>
		<g
   id="group968-1"
   transform="translate(12.24,-34.0157)">
			<title
   id="title6">Storage Account Lifecycle Management</title>
			<g
   id="group969-2">
				<title
   id="title8">Sheet.969</title>
				<g
   id="shape970-3"
   transform="translate(9.64986,-1.1811)">
					<title
   id="title10">Sheet.970</title>
					<path
   d="m 33.17,102.95 c -2.7,0 -5.43,-2.03 -5.43,-5.91 0,-1.82 0.68,-3.46 1.87,-4.72 H 0 V 58.07 c 0,-5.39 4.15,-9.45 9.65,-9.45 h 33.31 l -2.06,2.01 c -1.11,1.09 -2.3,3.86 -2.3,6.26 v 38.97 c 0,3.27 -1.42,7.09 -5.43,7.09 z"
   class="st1"
   id="path12"
   inkscape:connector-curvature="0"
   style="fill:#ffffff;stroke:none;stroke-width:12.23999977;stroke-linecap:butt" />
				</g>
				<g
   id="shape971-5"
   transform="translate(9.64986,-1.1811)">
					<title
   id="title15">Sheet.971</title>
					<path
   d="m 33.17,102.95 c -2.7,0 -5.43,-2.03 -5.43,-5.91 0,-1.82 0.68,-3.46 1.87,-4.72 H 0 V 58.07 c 0,-5.39 4.15,-9.45 9.65,-9.45 h 33.31 l -2.06,2.01 c -1.11,1.09 -2.3,3.86 -2.3,6.26 v 38.97 c 0,3.27 -1.42,7.09 -5.43,7.09 z"
   class="st2"
   id="path17"
   inkscape:connector-curvature="0"
   style="fill:#59b4d9;fill-opacity:0.2;stroke:none;stroke-width:12.23999977;stroke-linecap:butt" />
				</g>
				<g
   id="shape972-7">
					<title
   id="title20">Sheet.972</title>
					<path
   d="M 50.66,46.26 H 19.3 c -6.03,0 -10.86,4.72 -10.86,10.63 V 89.96 H 6.63 C 3.02,89.96 0,92.91 0,96.45 c 0,3.55 3.02,6.5 6.63,6.5 h 36.79 l 0.97,-0.12 c 3.98,-0.59 5.07,-4.72 5.07,-6.97 V 55.7 h 6.75 c 0.24,-0.82 0.48,-1.65 0.48,-2.71 0,-3.66 -2.65,-6.73 -6.03,-6.73 z m -3.62,9.44 v 38.98 c 0,1.77 -0.6,5.91 -4.22,5.91 -2.05,0 -4.22,-1.54 -4.22,-4.73 0,-2.95 2.05,-5.08 4.82,-5.79 V 89.96 H 10.86 V 56.89 c 0,-4.73 3.61,-8.27 8.44,-8.27 h 30.4 c -1.33,1.3 -2.66,4.37 -2.66,7.08 z"
   class="st3"
   id="path22"
   inkscape:connector-curvature="0"
   style="fill:#3999c6;stroke:none;stroke-width:12.23999977;stroke-linecap:butt" />
				</g>
				<g
   id="shape973-9"
   transform="translate(14.5954,-17.8346)">
					<title
   id="title25">Sheet.973</title>
					<path
   d="m 14.35,77.2 c 6.59,0 11.95,5.25 11.95,11.69 0,6.45 -5.36,11.7 -11.95,11.7 -6.58,0 -11.94,-5.25 -11.94,-11.7 0,-6.44 5.36,-11.69 11.94,-11.69 z m 0,-2.36 C 6.43,74.84 0,81.13 0,88.89 c 0,7.77 6.43,14.06 14.35,14.06 7.93,0 14.36,-6.29 14.36,-14.06 0,-7.76 -6.43,-14.05 -14.36,-14.05 z"
   class="st4"
   id="path27"
   inkscape:connector-curvature="0"
   style="fill:#804998;stroke:none;stroke-width:12.23999977;stroke-linecap:butt" />
				</g>
				<g
   id="shape974-11"
   transform="translate(27.7433,-27.672)">
					<title
   id="title30">Sheet.974</title>
					<path
   d="m 7.51,100.9 -5.1,-2.85 v -7.59 a 1.20623,1.1811 -180 1 0 -2.41,0 v 8.27 c 0,0.05 0.02,0.09 0.03,0.14 0.01,0.09 0.02,0.17 0.05,0.25 0.02,0.06 0.05,0.12 0.09,0.17 a 1.18211,1.15748 -180 0 0 0.15,0.23 c 0.04,0.04 0.09,0.08 0.13,0.11 0.06,0.04 0.09,0.1 0.15,0.13 l 5.7,3.19 a 1.209063,1.183874 -180 0 0 1.21,-2.05 z"
   class="st4"
   id="path32"
   inkscape:connector-curvature="0"
   style="fill:#804998;stroke:none;stroke-width:12.23999977;stroke-linecap:butt" />
				</g>
			</g>
		</g>
	</g>
</svg>

<?xml version="1.0" encoding="UTF-8" standalone="no"?>
<!DOCTYPE svg PUBLIC "-//W3C//DTD SVG 1.1//EN" "http://www.w3.org/Graphics/SVG/1.1/DTD/svg11.dtd">
<!-- Generated by Microsoft Visio, SVG Export Storage Account Lifecycle Management.svg Page-1 -->
<svg xmlns="http://www.w3.org/2000/svg" xmlns:xlink="http://www.w3.org/1999/xlink" xmlns:ev="http://www.w3.org/2001/xml-events"
		width="1.1274in" height="1.42984in" viewBox="0 0 81.1729 102.949" xml:space="preserve" color-interpolation-filters="sRGB"
		class="st5">
	<style type="text/css">
	<![CDATA[
		.st1 {fill:#ffffff;stroke:none;stroke-linecap:butt;stroke-width:12.24}
		.st2 {fill:#59b4d9;fill-opacity:0.2;stroke:none;stroke-linecap:butt;stroke-width:12.24}
		.st3 {fill:#3999c6;stroke:none;stroke-linecap:butt;stroke-width:12.24}
		.st4 {fill:#804998;stroke:none;stroke-linecap:butt;stroke-width:12.24}
		.st5 {fill:none;fill-rule:evenodd;font-size:12px;overflow:visible;stroke-linecap:square;stroke-miterlimit:3}
	]]>
	</style>

	<g>
		<title>Page-1</title>
		<g id="group953-1" transform="translate(12.24,-34.0157)">
			<title>Storage Account Lifecycle Management</title>
			<g id="group954-2">
				<title>Sheet.954</title>
				<g id="shape955-3" transform="translate(9.64986,-1.1811)">
					<title>Sheet.955</title>
					<path d="M33.17 102.95 C30.47 102.95 27.74 100.92 27.74 97.04 C27.74 95.22 28.42 93.58 29.61 92.32 L0 92.32 L0
								 58.07 C0 52.68 4.15 48.62 9.65 48.62 L42.96 48.62 L40.9 50.63 C39.79 51.72 38.6 54.49 38.6 56.89
								 L38.6 95.86 C38.6 99.13 37.18 102.95 33.17 102.95 Z" class="st1"/>
				</g>
				<g id="shape956-5" transform="translate(9.64986,-1.1811)">
					<title>Sheet.956</title>
					<path d="M33.17 102.95 C30.47 102.95 27.74 100.92 27.74 97.04 C27.74 95.22 28.42 93.58 29.61 92.32 L0 92.32 L0
								 58.07 C0 52.68 4.15 48.62 9.65 48.62 L42.96 48.62 L40.9 50.63 C39.79 51.72 38.6 54.49 38.6 56.89
								 L38.6 95.86 C38.6 99.13 37.18 102.95 33.17 102.95 Z" class="st2"/>
				</g>
				<g id="shape957-7">
					<title>Sheet.957</title>
					<path d="M50.66 46.26 L19.3 46.26 C13.27 46.26 8.44 50.98 8.44 56.89 L8.44 89.96 L6.63 89.96 C3.02 89.96 0 92.91
								 0 96.45 C0 100 3.02 102.95 6.63 102.95 L43.42 102.95 L44.39 102.83 C48.37 102.24 49.46 98.11 49.46
								 95.86 L49.46 55.7 L56.21 55.7 C56.45 54.88 56.69 54.05 56.69 52.99 C56.69 49.33 54.04 46.26 50.66
								 46.26 ZM47.04 55.7 L47.04 94.68 C47.04 96.45 46.44 100.59 42.82 100.59 C40.77 100.59 38.6 99.05
								 38.6 95.86 C38.6 92.91 40.65 90.78 43.42 90.07 L43.42 89.96 L10.86 89.96 L10.86 56.89 C10.86 52.16
								 14.47 48.62 19.3 48.62 L49.7 48.62 C48.37 49.92 47.04 52.99 47.04 55.7 Z" class="st3"/>
				</g>
				<g id="shape958-9" transform="translate(14.5954,-17.8346)">
					<title>Sheet.958</title>
					<path d="M14.35 77.2 C20.94 77.2 26.3 82.45 26.3 88.89 C26.3 95.34 20.94 100.59 14.35 100.59 C7.77 100.59 2.41
								 95.34 2.41 88.89 C2.41 82.45 7.77 77.2 14.35 77.2 ZM14.35 74.84 C6.43 74.84 0 81.13 0 88.89 C0 96.66
								 6.43 102.95 14.35 102.95 C22.28 102.95 28.71 96.66 28.71 88.89 C28.71 81.13 22.28 74.84 14.35 74.84
								 Z" class="st4"/>
				</g>
				<g id="shape959-11" transform="translate(27.7433,-27.672)">
					<title>Sheet.959</title>
					<path d="M7.51 100.9 L2.41 98.05 L2.41 90.46 A1.20623 1.1811 -180 1 0 0 90.46 L0 98.73 C0 98.78 0.02 98.82 0.03
								 98.87 C0.04 98.96 0.05 99.04 0.08 99.12 C0.1 99.18 0.13 99.24 0.17 99.29 A1.18211 1.15748 -180 0
								 0 0.32 99.52 C0.36 99.56 0.41 99.6 0.45 99.63 C0.51 99.67 0.54 99.73 0.6 99.76 L6.3 102.95 A1.20623
								 1.1811 -180 0 0 7.51 100.9 Z" class="st4"/>
				</g>
			</g>
		</g>
	</g>
</svg>
